assets/Favicon.svg

<svg fill="none" height="200" viewBox="0 0 200 200" width="200" xmlns="http://www.w3.org/2000/svg" xmlns:xlink="http://www.w3.org/1999/xlink"><clipPath id="a"><path d="m0 0h200v200h-200z"/></clipPath><g clip-path="url(#a)"><circle cx="100" cy="100" fill="#383343" r="100"/><g fill="#e9e8eb"><path clip-rule="evenodd" d="m112.284 81.8737h-26.905v7.9527c.0057-1.9165 1.5612-3.4684 3.4791-3.4684h16.6999c7.43 0 13.453 6.0229 13.453 13.4526 0 7.4294-6.023 13.4524-13.453 13.4524h-16.6999c-1.9179 0-3.4734-1.552-3.4791-3.468v7.952h26.905c9.906 0 17.937-8.03 17.937-17.9365 0-9.9062-8.031-17.9368-17.937-17.9368z" fill-rule="evenodd"/><path clip-rule="evenodd" d="m112.284 117.747h-26.905v7.953c.0057-1.916 1.5612-3.468 3.4791-3.468h16.6999c7.43 0 13.453 6.023 13.453 13.452 0 7.43-6.023 13.453-13.453 13.453h-16.6999c-1.9179 0-3.4734-1.552-3.4791-3.469v7.953h26.905c9.906 0 17.937-8.031 17.937-17.937s-8.031-17.937-17.937-17.937z" fill-rule="evenodd"/><path clip-rule="evenodd" d="m112.284 46h-26.905v7.9528c.0057-1.9166 1.5612-3.4685 3.4791-3.4685h16.6999c7.43 0 13.453 6.023 13.453 13.4527 0 7.4296-6.023 13.4526-13.453 13.4526h-16.6999c-1.9179 0-3.4734-1.5519-3.4791-3.4685v7.9526h26.905c9.906 0 17.937-8.0306 17.937-17.9369 0-9.9062-8.031-17.9368-17.937-17.9368z" fill-rule="evenodd"/><path d="m70.1054 49.679c-2.2697-.33-2.0276-3.679.266-3.679h15.0075v107.621h-15.0075c-2.2936 0-2.5357-3.349-.266-3.679 1.8178-.264 3.1662-1.823 3.1662-3.66v-6.114-13.452-26.9055-26.9052-13.4527-6.1139c0-1.8369-1.3484-3.3955-3.1662-3.6597z"/><circle cx="145.916" cy="140.169" r="4.48421"/></g></g></svg>

<svg width="200" height="200" viewBox="0 0 200 200" fill="none" xmlns="http://www.w3.org/2000/svg">
<g clip-path="url(#clip0_156_172)">
<circle cx="100" cy="100" r="100" fill="#383343"/>
<path fill-rule="evenodd" clip-rule="evenodd" d="M112.284 81.8737H85.379V89.8264C85.3847 87.9099 86.9402 86.358 88.8581 86.358H105.558C112.988 86.358 119.011 92.3809 119.011 99.8106C119.011 107.24 112.988 113.263 105.558 113.263H88.8581C86.9402 113.263 85.3847 111.711 85.379 109.795V117.747H112.284C122.19 117.747 130.221 109.717 130.221 99.8105C130.221 89.9043 122.19 81.8737 112.284 81.8737Z" fill="#E9E8EB"/>
<path fill-rule="evenodd" clip-rule="evenodd" d="M112.284 117.747H85.379V125.7C85.3847 123.784 86.9402 122.232 88.8581 122.232H105.558C112.988 122.232 119.011 128.255 119.011 135.684C119.011 143.114 112.988 149.137 105.558 149.137H88.8581C86.9402 149.137 85.3847 147.585 85.379 145.668V153.621H112.284C122.19 153.621 130.221 145.59 130.221 135.684C130.221 125.778 122.19 117.747 112.284 117.747Z" fill="#E9E8EB"/>
<path fill-rule="evenodd" clip-rule="evenodd" d="M112.284 46H85.379V53.9528C85.3847 52.0362 86.9402 50.4843 88.8581 50.4843H105.558C112.988 50.4843 119.011 56.5073 119.011 63.937C119.011 71.3666 112.988 77.3896 105.558 77.3896H88.8581C86.9402 77.3896 85.3847 75.8377 85.379 73.9211V81.8737H112.284C122.19 81.8737 130.221 73.8431 130.221 63.9368C130.221 54.0306 122.19 46 112.284 46Z" fill="#E9E8EB"/>
<path d="M70.1054 49.679C67.8357 49.349 68.0778 46 70.3714 46H85.3789V153.621H70.3714C68.0778 153.621 67.8357 150.272 70.1054 149.942V149.942C71.9232 149.678 73.2716 148.119 73.2716 146.282V140.168V126.716V99.8105V72.9053V59.4526V53.3387C73.2716 51.5018 71.9232 49.9432 70.1054 49.679V49.679Z" fill="#E9E8EB"/>
<circle cx="145.916" cy="140.169" r="4.48421" fill="#E9E8EB"/>
</g>
<defs>
<clipPath id="clip0_156_172">
<rect width="200" height="200" fill="white"/>
</clipPath>
</defs>
</svg>
